X: 1643
T: The Farm Hornpipe
M:C|
L:1/8
B:O'Neill's 1643
N:"collected by J. O'Neill"
K:D
a>g \
| (3faf d>f a>fd>f | (3gbg e>g b>ge>g | (3faf d>f a>fd>f | (3efe (3dcB A2a>g |
| (3faf d>f a>fd>f | (3gbg e>g b>ge>a | (3ad'c' (3bag f>ed>c | (3dba (3gfe d2 :|
|: zg \
| f>ed>B (3ABA (3GFE | (3G,B,D (3GBd g3z | (3gbg e>g (3faf d>f | (3efe (3dcB A3g |
| f>ed>B (3ABA (3GFE | (3G,B,D (3GBd g3z | (3gbg e>g (3faf d>f | (3efg (3ABc d2 :|


